actions/16/call-stop.svg

<svg xmlns="http://www.w3.org/2000/svg" viewBox="0 0 16 16">
  <defs id="defs3051">
    <style type="text/css" id="current-color-scheme">
      .ColorScheme-Text {
        color:#808080;
      }
      .ColorScheme-NegativeText {
        color:#da4453;
      }
      </style>
  </defs>
  <path
     style="fill:currentColor;fill-opacity:1;stroke:none" 
     class="ColorScheme-NegativeText"
    d="m6 6c-1.712 0-3.189.921-4 2.289v1.044c0 0 0 .667.667.667h2c.667 0 .667-.667.667-.667v-.333c0-.554.446-1 1-1h3.333c.554 0 1 .446 1 1v.333c0 0 0 .667.667.667h2c.667 0 .667-.667.667-.667v-1.044c-.811-1.368-2.288-2.289-4-2.289z" />
</svg>

<svg xmlns="http://www.w3.org/2000/svg" version="1.1" viewBox="0 0 16 16">
 <defs>
  <style id="current-color-scheme" type="text/css">
   .ColorScheme-Text { color:#808080; } .ColorScheme-NegativeText { color:#da4453; }
  </style>
 </defs>
 <path class="ColorScheme-NegativeText" d="M 6,6 C 4.288,6 2.811,6.921 2,8.289 V 9.333 C 2,9.333 2,10 2.667,10 H 4.667 C 5.334,10 5.334,9.333 5.334,9.333 V 9 C 5.334,8.446 5.78,8 6.334,8 H 9.667 C 10.221,8 10.667,8.446 10.667,9 V 9.333 C 10.667,9.333 10.667,10 11.334,10 H 13.334 C 14.001,10 14.001,9.333 14.001,9.333 V 8.289 C 13.19,6.921 11.713,6 10.001,6 Z" style="color:#da4453;fill:currentColor"/>
</svg>
